X: 38425
T: Star, The
R: hornpipe
M: 4/4
K: Gmajor
Bc|"D7"d2 ef "G"g2 BA|"Em"G>F GB "D"D2 GF|"C"Ec Ec "G"DB DB|"Am"(3cBA BG "D"A2 Bc|
"D7"d2 ef "G"g2 BA|"Em"G>F GB "D"D2 EF|"C"G2 d>c "Em"BA GF|"D7"A2 G2 "G"G2 cB|
"D7"A>G AB "Am"cB cd|"C"ed ef "G"g2 gf|"C"e>d cB "Am"cB AG|"D"F2 D2 D2 (3Bc^c|
"D7"d2 ef "G"g2 BA|"Em"G>F GB "D"D2 EF|"C"G2 d>c "Em"BA GF|"D7"A2 G2 "G"G2||

